build/Karasa-Jaga/scalable/actions/view-fullscreen-symbolic.svg

<svg height="16.03" width="16.054" xmlns="http://www.w3.org/2000/svg"><g fill="#bebebe"><path d="m9.2734375 1.1835938 3.0585935 1.6210937c-.002158.0021089-.005671.0017654-.007812.0039063l-3.4882815 3.4882812c-.2445934.2445934-.27964.6031725-.0800781.8027344l.4804687.4785156c.1995619.1995619.5561879.1645152.8007809-.0800781l3.435547-3.4355469 1.677735 3.2148438v-6.09375z"/><path d="m6.7802273 14.846494-3.058593-1.621094c.0022-.0021.0057-.0018.0078-.0039l3.488283-3.488287c.244593-.2445938.27964-.6031729.08008-.8027348l-.480461-.4785156c-.199561-.1995619-.556187-.1645152-.80078.0800781l-3.435547 3.4355473-1.67773537-3.2148442v6.0937502z"/></g></svg>

<?xml version="1.0" encoding="UTF-8" standalone="no"?>
<!-- Created with Inkscape (http://www.inkscape.org/) -->

<svg
   xmlns:dc="http://purl.org/dc/elements/1.1/"
   xmlns:cc="http://creativecommons.org/ns#"
   xmlns:rdf="http://www.w3.org/1999/02/22-rdf-syntax-ns#"
   xmlns:svg="http://www.w3.org/2000/svg"
   xmlns="http://www.w3.org/2000/svg"
   xmlns:sodipodi="http://sodipodi.sourceforge.net/DTD/sodipodi-0.dtd"
   xmlns:inkscape="http://www.inkscape.org/namespaces/inkscape"
   id="svg7384"
   height="16.03"
   width="16.054"
   version="1.1"
   inkscape:version="0.92.2 (unknown)"
   sodipodi:docname="view-fullscreen-symbolic.svg">
  <defs
     id="defs3108" />
  <sodipodi:namedview
     pagecolor="#ffffff"
     bordercolor="#666666"
     borderopacity="1"
     objecttolerance="10"
     gridtolerance="10"
     guidetolerance="10"
     inkscape:pageopacity="0"
     inkscape:pageshadow="2"
     inkscape:window-width="1366"
     inkscape:window-height="716"
     id="namedview3106"
     showgrid="false"
     inkscape:zoom="14.722395"
     inkscape:cx="12.219288"
     inkscape:cy="11.922367"
     inkscape:window-x="0"
     inkscape:window-y="27"
     inkscape:window-maximized="1"
     inkscape:current-layer="svg7384" />
  <metadata
     id="metadata90">
    <rdf:RDF>
      <cc:Work
         rdf:about="">
        <dc:format>image/svg+xml</dc:format>
        <dc:type
           rdf:resource="http://purl.org/dc/dcmitype/StillImage" />
        <dc:title>Gnome Symbolic Icon Theme</dc:title>
      </cc:Work>
    </rdf:RDF>
  </metadata>
  <title
     id="title9167">Gnome Symbolic Icon Theme</title>
  <path
     style="fill:#bebebe;fill-opacity:1;stroke:none"
     d="M 9.2734375 1.1835938 L 12.332031 2.8046875 C 12.329873 2.8067964 12.32636 2.8064529 12.324219 2.8085938 L 8.8359375 6.296875 C 8.5913441 6.5414684 8.5562975 6.9000475 8.7558594 7.0996094 L 9.2363281 7.578125 C 9.43589 7.7776869 9.792516 7.7426402 10.037109 7.4980469 L 13.472656 4.0625 L 15.150391 7.2773438 L 15.150391 1.1835938 L 9.2734375 1.1835938 z "
     id="path4153" />
  <path
     id="path904"
     d="M 6.7802273,14.846494 3.7216343,13.2254 c 0.0022,-0.0021 0.0057,-0.0018 0.0078,-0.0039 l 3.488283,-3.488287 c 0.244593,-0.2445938 0.27964,-0.6031729 0.08008,-0.8027348 L 6.8173363,8.4519626 C 6.6177753,8.2524007 6.2611493,8.2874474 6.0165563,8.5320407 L 2.5810093,11.967588 0.90327393,8.7527438 v 6.0937502 z"
     style="fill:#bebebe;fill-opacity:1;stroke:none"
     inkscape:connector-curvature="0" />
</svg>
